X: 1
T: Alasdair's Reel [D]
T: Tinker Tyke
C: James Gray
R: reel
Z: 2007 John Chambers <jc:trillian.mit.edu>
N: Notes from Margaret Lambourne:
N: James is Alex Gray's son and a fantastic pianist and composer. Alasdair is
N: his brother. The dance is to be found in The Tweeddale Collection volume 2
N: devised by Alex. Alex will be the new RSCDS chairman in 2008.
S: Printed page from Margaret Lambourne, with "Tinker Tyke" at the upper left
M: C|
L: 1/8
K: D
(3ABc |\
|  "D"d2d2 "(Bm)"DEFD | "Em"EFGA "A7"BABc \
|  "D"d2d2 "(Bm)"DEFD | "A7"EFGE "D"D2 :|
A2 |\
| "D"d2d2 dfed | "A7"cBcd e2A2 \
| "D"d2d2 "Bm"dfed | "Em"cBcd "A7"ecBA |
| "G"GBAG "D"FAGF | "Em"EDEF "A7"GABc \
| "D"d2d2 "Bm"DEFD | "A7"EFGE "D"D2 |]
